X: 18
T:Berner Marche
M:4/4
L:1/16
S:French Creek
K:D
A4A4A2Bcd4|d2A2 A2FA G2EG F4|A2FA G2EG F2DF E4|FAGF EGFE D2F2D4:||!
A4B4ABAG FEFG|A2A2 B2B2 ABAGF4|D2F2 D2F2 F2ED E4|!
E2G2 E2G2 G2FE F2D2|A4F4 EGFE DEFG|A2A2 F2F2 EGFED4||
